public/images/poses-lg/DownwardFacingDog.svg

<svg width="800" height="800" fill="none" xmlns="http://www.w3.org/2000/svg"><g clip-path="url(#a)"><path d="m272.064 454.318 32.005-29.492 56.625 56.525c22.156 22.117 59.085 51.608 76.319 68.811 17.235 17.203 41.853 66.355 54.163 78.642l19.696 19.662-32.006 4.915s-12.309-14.746-56.624-12.287c-44.316 2.457-56.625-12.288-66.473-29.492-9.848-17.203-7.385-34.406-32.005-61.44-24.62-27.034-36.93-44.237-44.315-49.151-7.386-4.914-9.848-7.371-9.848-7.371l2.463-39.322Z" fill="#fff" stroke="#000" stroke-width="5" stroke-miterlimit="10"/><path d="m272.064 454.318 32.005-29.492 56.625 56.525c22.156 22.117 59.085 51.608 76.319 68.811 17.235 17.203 41.853 66.355 54.163 78.642l19.696 19.662-32.006 4.915s-12.309-14.746-56.624-12.287c-44.316 2.457-56.625-12.288-66.473-29.492-9.848-17.203-7.385-34.406-32.005-61.44-24.62-27.034-36.93-44.237-44.315-49.151-7.386-4.914-9.848-7.371-9.848-7.371l2.463-39.322Z" stroke="#000" stroke-width="5" stroke-miterlimit="10"/><path d="M524.986 634.336c8.902.471 13.355 7.681 22.325 11.623 14.253 6.262 16.973 30.167 6.796 44.259-13.435 18.607-83.139-24.428-77.191-36.37 3.523-7.079 16.829-15.59 33.448-17.361 5.341-.569 14.622-2.151 14.622-2.151Z" fill="#fff" stroke="#000" stroke-width="5" stroke-miterlimit="10"/><path d="M524.986 634.336c8.902.471 13.355 7.681 22.325 11.623 14.253 6.262 16.973 30.167 6.796 44.259-13.435 18.607-83.139-24.428-77.191-36.37 3.523-7.079 16.829-15.59 33.448-17.361 5.341-.569 14.622-2.151 14.622-2.151Z" stroke="#000" stroke-width="5" stroke-miterlimit="10"/><path d="M540.884 693.167c-11.958-7.97-28.198-30.839-14.516-43.491 15.388-14.223.713-13.778-3.367-14.493-4.076-.714-15.468 3.706-15.296 1.421.174-2.288 23.962-18.034 42.92-9.215 18.956 8.821 22.967 20.72 22.561 33.196-.404 12.479-9.107 27.772-20.46 33.24-11.358 5.464-11.842-.658-11.842-.658Z" fill="#000" stroke="#000" stroke-width="5" stroke-miterlimit="10"/><path d="M434.705 581.786s11.639 4.34 22.137 12.648c14.271 11.296 16.467 33.525 36.182 59.265 22.34 29.16 61.452 61.412 61.452 61.412 3.577 3.504 11.305 5.654 15.825 7.9 5.612 2.794 11.22 5.574 16.831 8.359 11.213 5.571 22.42 11.149 33.581 16.815 21.253 10.788 25.707 16.635 47.725 25.619 0 0 19.696 4.916 39.392 4.916 14.773 0 31.597 6.203 29.544 12.287-.723 2.145-49.238 4.915-73.859-2.457-26.638-7.977-33.721-12.532-59.889-21.933-19.246-6.919-41.706-13.175-59.01-24.363-85.807-55.479-122.769-126.091-122.769-126.091" fill="#fff"/><path d="M434.705 581.786s11.639 4.34 22.137 12.648c14.271 11.296 16.467 33.525 36.182 59.265 22.34 29.16 61.452 61.412 61.452 61.412 3.577 3.504 11.305 5.654 15.825 7.9 5.612 2.794 11.22 5.574 16.831 8.359 11.213 5.571 22.42 11.149 33.581 16.815 21.253 10.788 25.707 16.635 47.725 25.619 0 0 19.696 4.916 39.392 4.916 14.773 0 31.597 6.203 29.544 12.287-.723 2.145-49.238 4.915-73.859-2.457-26.638-7.977-33.721-12.532-59.889-21.933-19.246-6.919-41.706-13.175-59.01-24.363-85.807-55.479-122.769-126.091-122.769-126.091" stroke="#000" stroke-width="5" stroke-miterlimit="10"/><path d="M434.705 581.786s11.639 4.34 22.137 12.648c14.271 11.296 16.467 33.525 36.182 59.265 22.34 29.16 61.452 61.412 61.452 61.412 3.577 3.504 11.305 5.654 15.825 7.9 5.612 2.794 11.22 5.574 16.831 8.359 11.213 5.571 22.42 11.149 33.581 16.815 21.253 10.788 25.707 16.635 47.725 25.619 0 0 19.696 4.916 39.392 4.916 14.773 0 31.597 6.203 29.544 12.287-.723 2.145-49.238 4.915-73.859-2.457-26.638-7.977-33.721-12.532-59.889-21.933-19.246-6.919-41.706-13.175-59.01-24.363-85.807-55.479-122.769-126.091-122.769-126.091" stroke="#000" stroke-width="5" stroke-miterlimit="10"/><path d="M281.912 461.691c7.386-14.745 19.696-34.407 22.157-36.865 0 0-32.005-24.575-66.472-27.034-34.468-2.457-49.239 27.034-59.087 56.525-8.703 26.069-27.082 76.185-34.467 93.388-7.386 17.204-19.453 48.668-32.005 73.728-14.772 29.492-26.903 70.562-32.005 90.932-4.924 19.661-13.438 41.367-14.772 46.694-2.462 9.83-7.385 19.661 7.386 22.118 14.57 2.424 56.226 0 64.011 0 9.848 0 19.695-4.915 12.309-9.83-7.386-4.916-29.543-4.916-39.391-7.372-9.848-2.457-17.234-4.916-12.31-14.747 4.925-9.83 41.854-76.186 61.549-105.676 19.696-29.491 56.52-95.923 76.32-122.88 27.082-36.864 29.544-27.032 34.468-27.032-.001 0 7.385-22.119 12.309-31.949Z" fill="#fff" stroke="#000" stroke-width="5" stroke-miterlimit="10"/><path d="M281.912 461.691c7.386-14.745 19.696-34.407 22.157-36.865 0 0-32.005-24.575-66.472-27.034-34.468-2.457-49.239 27.034-59.087 56.525-8.703 26.069-27.082 76.185-34.467 93.388-7.386 17.204-19.453 48.668-32.005 73.728-14.772 29.492-26.903 70.562-32.005 90.932-4.924 19.661-13.438 41.367-14.772 46.694-2.462 9.83-7.385 19.661 7.386 22.118 14.57 2.424 56.226 0 64.011 0 9.848 0 19.695-4.915 12.309-9.83-7.386-4.916-29.543-4.916-39.391-7.372-9.848-2.457-17.234-4.916-12.31-14.747 4.925-9.83 41.854-76.186 61.549-105.676 19.696-29.491 56.52-95.923 76.32-122.88 27.082-36.864 29.544-27.032 34.468-27.032-.001 0 7.385-22.119 12.309-31.949Z" stroke="#000" stroke-width="5" stroke-miterlimit="10"/><path d="M79.42 714.751c5.536 7.445 30.889 10.567 30.889 10.567M463.656 587.631c-11.871-10.435-34.027-20.263-48.8-3.06-14.772 17.202-6.13 43.862 11.709 56.336" stroke="#000" stroke-width="5" stroke-miterlimit="10"/></g><defs><clipPath id="a"><path fill="#fff" d="M0 0h800v800H0z"/></clipPath></defs></svg>

<svg width="800" height="800" viewBox="0 0 800 800" fill="none" xmlns="http://www.w3.org/2000/svg">
<g clip-path="url(#clip0_298_12109)">
<path d="M272.064 454.318L304.069 424.826L360.694 481.351C382.85 503.468 419.779 532.959 437.013 550.162C454.248 567.365 478.866 616.517 491.176 628.804L510.872 648.466L478.866 653.381C478.866 653.381 466.557 638.635 422.242 641.094C377.926 643.551 365.617 628.806 355.769 611.602C345.921 594.399 348.384 577.196 323.764 550.162C299.144 523.128 286.834 505.925 279.449 501.011C272.063 496.097 269.601 493.64 269.601 493.64L272.064 454.318Z" fill="white" stroke="black" stroke-width="5" stroke-miterlimit="10"/>
<path d="M272.064 454.318L304.069 424.826L360.694 481.351C382.85 503.468 419.779 532.959 437.013 550.162C454.248 567.365 478.866 616.517 491.176 628.804L510.872 648.466L478.866 653.381C478.866 653.381 466.557 638.635 422.242 641.094C377.926 643.551 365.617 628.806 355.769 611.602C345.921 594.399 348.384 577.196 323.764 550.162C299.144 523.128 286.834 505.925 279.449 501.011C272.063 496.097 269.601 493.64 269.601 493.64L272.064 454.318Z" stroke="black" stroke-width="5" stroke-miterlimit="10"/>
<path d="M524.986 634.336C533.888 634.807 538.341 642.017 547.311 645.959C561.564 652.221 564.284 676.126 554.107 690.218C540.672 708.825 470.968 665.79 476.916 653.848C480.439 646.769 493.745 638.258 510.364 636.487C515.705 635.918 524.986 634.336 524.986 634.336Z" fill="white" stroke="black" stroke-width="5" stroke-miterlimit="10"/>
<path d="M524.986 634.336C533.888 634.807 538.341 642.017 547.311 645.959C561.564 652.221 564.284 676.126 554.107 690.218C540.672 708.825 470.968 665.79 476.916 653.848C480.439 646.769 493.745 638.258 510.364 636.487C515.705 635.918 524.986 634.336 524.986 634.336Z" stroke="black" stroke-width="5" stroke-miterlimit="10"/>
<path d="M540.884 693.167C528.926 685.197 512.686 662.328 526.368 649.676C541.756 635.453 527.081 635.898 523.001 635.183C518.925 634.469 507.533 638.889 507.705 636.604C507.879 634.316 531.667 618.57 550.625 627.389C569.581 636.21 573.592 648.109 573.186 660.585C572.782 673.064 564.079 688.357 552.726 693.825C541.368 699.289 540.884 693.167 540.884 693.167Z" fill="black" stroke="black" stroke-width="5" stroke-miterlimit="10"/>
<path d="M434.705 581.786C434.705 581.786 446.344 586.126 456.842 594.434C471.113 605.73 473.309 627.959 493.024 653.699C515.364 682.859 554.476 715.111 554.476 715.111C558.053 718.615 565.781 720.765 570.301 723.011C575.913 725.805 581.521 728.585 587.132 731.37C598.345 736.941 609.552 742.519 620.713 748.185C641.966 758.973 646.42 764.82 668.438 773.804C668.438 773.804 688.134 778.72 707.83 778.72C722.603 778.72 739.427 784.923 737.374 791.007C736.651 793.152 688.136 795.922 663.515 788.55C636.877 780.573 629.794 776.018 603.626 766.617C584.38 759.698 561.92 753.442 544.616 742.254C458.809 686.775 421.847 616.163 421.847 616.163" fill="white"/>
<path d="M434.705 581.786C434.705 581.786 446.344 586.126 456.842 594.434C471.113 605.73 473.309 627.959 493.024 653.699C515.364 682.859 554.476 715.111 554.476 715.111C558.053 718.615 565.781 720.765 570.301 723.011C575.913 725.805 581.521 728.585 587.132 731.37C598.345 736.941 609.552 742.519 620.713 748.185C641.966 758.973 646.42 764.82 668.438 773.804C668.438 773.804 688.134 778.72 707.83 778.72C722.603 778.72 739.427 784.923 737.374 791.007C736.651 793.152 688.136 795.922 663.515 788.55C636.877 780.573 629.794 776.018 603.626 766.617C584.38 759.698 561.92 753.442 544.616 742.254C458.809 686.775 421.847 616.163 421.847 616.163" stroke="black" stroke-width="5" stroke-miterlimit="10"/>
<path d="M434.705 581.786C434.705 581.786 446.344 586.126 456.842 594.434C471.113 605.73 473.309 627.959 493.024 653.699C515.364 682.859 554.476 715.111 554.476 715.111C558.053 718.615 565.781 720.765 570.301 723.011C575.913 725.805 581.521 728.585 587.132 731.37C598.345 736.941 609.552 742.519 620.713 748.185C641.966 758.973 646.42 764.82 668.438 773.804C668.438 773.804 688.134 778.72 707.83 778.72C722.603 778.72 739.427 784.923 737.374 791.007C736.651 793.152 688.136 795.922 663.515 788.55C636.877 780.573 629.794 776.018 603.626 766.617C584.38 759.698 561.92 753.442 544.616 742.254C458.809 686.775 421.847 616.163 421.847 616.163" stroke="black" stroke-width="5" stroke-miterlimit="10"/>
<path d="M281.912 461.691C289.298 446.946 301.608 427.284 304.069 424.826C304.069 424.826 272.064 400.251 237.597 397.792C203.129 395.335 188.358 424.826 178.51 454.317C169.807 480.386 151.428 530.502 144.043 547.705C136.657 564.909 124.59 596.373 112.038 621.433C97.2664 650.925 85.1345 691.995 80.0325 712.365C75.109 732.026 66.5955 753.732 65.2612 759.059C62.7994 768.889 57.876 778.72 72.6473 781.177C87.2164 783.601 128.873 781.177 136.658 781.177C146.506 781.177 156.353 776.262 148.967 771.347C141.581 766.431 119.424 766.431 109.576 763.975C99.7281 761.518 92.342 759.059 97.2664 749.228C102.191 739.398 139.12 673.042 158.815 643.552C178.511 614.061 215.335 547.629 235.135 520.672C262.217 483.808 264.679 493.64 269.603 493.64C269.602 493.64 276.988 471.521 281.912 461.691Z" fill="white" stroke="black" stroke-width="5" stroke-miterlimit="10"/>
<path d="M281.912 461.691C289.298 446.946 301.608 427.284 304.069 424.826C304.069 424.826 272.064 400.251 237.597 397.792C203.129 395.335 188.358 424.826 178.51 454.317C169.807 480.386 151.428 530.502 144.043 547.705C136.657 564.909 124.59 596.373 112.038 621.433C97.2664 650.925 85.1345 691.995 80.0325 712.365C75.109 732.026 66.5955 753.732 65.2612 759.059C62.7994 768.889 57.876 778.72 72.6473 781.177C87.2164 783.601 128.873 781.177 136.658 781.177C146.506 781.177 156.353 776.262 148.967 771.347C141.581 766.431 119.424 766.431 109.576 763.975C99.7281 761.518 92.342 759.059 97.2664 749.228C102.191 739.398 139.12 673.042 158.815 643.552C178.511 614.061 215.335 547.629 235.135 520.672C262.217 483.808 264.679 493.64 269.603 493.64C269.602 493.64 276.988 471.521 281.912 461.691Z" stroke="black" stroke-width="5" stroke-miterlimit="10"/>
<path d="M79.4192 714.751C84.9559 722.196 110.309 725.318 110.309 725.318" stroke="black" stroke-width="5" stroke-miterlimit="10"/>
<path d="M463.656 587.631C451.785 577.196 429.629 567.368 414.856 584.571C400.084 601.773 408.726 628.433 426.565 640.907" stroke="black" stroke-width="5" stroke-miterlimit="10"/>
</g>
<defs>
<clipPath id="clip0_298_12109">
<rect width="800" height="800" fill="white"/>
</clipPath>
</defs>
</svg>
